social/icons/151-min.svg

<svg xmlns="http://www.w3.org/2000/svg" viewBox="0 0.59 32 30.82"><path d="M31.4618 12.7787L31.417 12.6641L27.0667 1.31308C26.9783 1.09046 26.8218 0.90145 26.6197 0.773028C26.416 0.644476 26.1775 0.582308 25.937 0.595107C25.6965 0.607906 25.4659 0.695039 25.277 0.844481C25.0899 0.994513 24.955 1.1998 24.8915 1.43106L21.9503 10.4324H10.0509L7.10976 1.43106C7.04625 1.1998 6.91133 0.994513 6.72425 0.844481C6.53618 0.694035 6.30572 0.606246 6.06523 0.593431C5.82473 0.580616 5.58625 0.64342 5.38326 0.773028C5.18023 0.900924 5.02312 1.09005 4.9346 1.31308L0.579314 12.679L0.534448 12.792C-0.0907536 14.429 -0.167604 16.2247 0.315452 17.9091C0.798508 19.5935 1.81536 21.0756 3.21309 22.1324L3.22971 22.144L3.26793 22.1739L9.90306 27.1407L13.1832 29.625L15.1773 31.1354C15.4115 31.3124 15.6971 31.4082 15.9907 31.4082C16.2842 31.4082 16.5698 31.3124 16.8041 31.1354L18.7981 29.625L22.0799 27.1407L28.7533 22.144L28.7715 22.1307C30.174 21.0749 31.1949 19.5916 31.6802 17.9045C32.1656 16.2175 32.0889 14.4184 31.4618 12.7787Z"/><path d="M31.462 12.7787L31.4172 12.6641C29.2955 13.1013 27.2962 14.0005 25.5614 15.2978L16.0083 22.5378C19.2652 25.0005 22.1001 27.1407 22.1001 27.1407L28.7734 22.144L28.7917 22.1307C30.1907 21.0723 31.2076 19.5877 31.6893 17.9009C32.171 16.214 32.0912 14.4163 31.462 12.7787Z" fill="#fff" opacity="0.15"/><path d="M9.9082 27.1407L13.1834 29.625L15.1774 31.1354C15.4117 31.3124 15.6972 31.4082 15.9908 31.4082C16.2844 31.4082 16.57 31.3124 16.8042 31.1354L18.7982 29.625L22.0801 27.1407C22.0801 27.1407 19.2452 25.0005 15.9883 22.5378L9.9082 27.1407Z" fill="#fff" opacity="0.25"/><path d="M6.43513 15.3045C4.70076 14.0067 2.70123 13.108 0.579333 12.6724L0.534467 12.7854C-0.0923403 14.4232 -0.170036 16.2203 0.313079 17.9061C0.796194 19.5919 1.81396 21.0751 3.21311 22.1324L3.22973 22.144L3.26795 22.1739L9.90307 27.1407L16.0081 22.5378L6.43513 15.3045Z" fill="#fff" opacity="0.15"/></svg>

<svg xmlns="http://www.w3.org/2000/svg" viewBox="0 0.59 32 30.82"><path d="m31.462 12.779-.045-.115-4.35-11.35a1.137 1.137 0 0 0-.447-.541 1.163 1.163 0 0 0-1.343.071c-.187.15-.322.356-.386.587l-2.94 9.001h-11.9l-2.941-9A1.138 1.138 0 0 0 6.065.592a1.153 1.153 0 0 0-1.13.72L.579 12.68l-.045.113a8.09 8.09 0 0 0 2.68 9.34l.016.012.038.03 6.635 4.967 3.28 2.484 1.994 1.51a1.35 1.35 0 0 0 1.627 0l1.994-1.51 3.282-2.484 6.673-4.997.018-.013a8.088 8.088 0 0 0 2.69-9.352"/><path fill="#fff" d="m31.462 12.779-.045-.115a14.748 14.748 0 0 0-5.856 2.634l-9.553 7.24A11225.6 11225.6 0 0 0 22.1 27.14l6.673-4.997.019-.013a8.09 8.09 0 0 0 2.67-9.352" opacity=".15"/><path fill="#fff" d="m9.908 27.14 3.275 2.485 1.994 1.51a1.35 1.35 0 0 0 1.627 0l1.994-1.51 3.282-2.484s-2.835-2.14-6.092-4.603z" opacity=".25"/><path fill="#fff" d="M6.435 15.305A14.712 14.712 0 0 0 .58 12.672l-.045.113a8.09 8.09 0 0 0 2.68 9.347l.016.012.038.03 6.635 4.967 6.105-4.603z" opacity=".15"/></svg>
